X: 22
M:2/4
L:1/16
K:A
E2|A2A2 AcBd|c2c2 cedf|eagf edcA|Ace^d fedB|
|:A2 ceAe ceAe|dfBf dfBf|ceAe ceAe|BAGF Aced|
ceAe ceAe|dfBf dfBf|eagf (3efe (3dcB|c2A2 A2:||

